packages/icons/src/components/Icon/assets/small-solid/thumbs-up.svg

<svg width="16" height="16" viewBox="0 0 16 16" fill="none" xmlns="http://www.w3.org/2000/svg">
<path d="M2 15C2.55228 15 3 14.5523 3 14L3 8C3 7.44771 2.55228 7 2 7C1.44772 7 1 7.44771 1 8L1 14C1 14.5523 1.44772 15 2 15Z" fill="black"/>
<path d="M5.67526 13H3.99981L3.99981 8C4.66269 8 5.21859 7.5336 5.55658 6.96337C5.88997 6.40091 6.35723 5.92717 6.91449 5.58603C7.39221 5.29357 7.82111 4.8797 7.90289 4.32557L7.9035 4.32132C7.94098 4.06658 7.96779 3.80838 7.98346 3.54717C7.99431 3.36621 7.99981 3.18369 7.99981 3C7.99981 2.55113 7.96695 2.10993 7.9035 1.67868C7.87507 1.48544 7.95134 1.28532 8.12703 1.19998C8.39077 1.07186 8.6869 1 8.99981 1C10.1044 1 10.9998 1.89555 10.9998 3.00012C10.9998 3.81187 10.9192 4.6048 10.7656 5.37133C10.7014 5.69168 10.9401 6 11.2668 6L12.9998 6C14.1044 6 15.0103 6.89759 14.9012 7.99676C14.8809 8.20221 14.8574 8.40675 14.8309 8.61035C14.6429 10.0566 14.3 11.4534 13.8199 12.7844C13.5502 13.5322 12.822 14 12.027 14H9.32437C9.1094 14 8.89584 13.9653 8.69191 13.8974L6.30771 13.1026C6.10378 13.0347 5.89022 13 5.67526 13Z" fill="black"/>
</svg>

<svg xmlns="http://www.w3.org/2000/svg" width="16" height="16" fill="none" viewBox="0 0 16 16">
    <path fill="#000" d="M2 15a1 1 0 0 0 1-1V8a1 1 0 1 0-2 0v6a1 1 0 0 0 1 1m3.675-2H4V8c.663 0 1.219-.466 1.557-1.037a4 4 0 0 1 1.357-1.377c.478-.292.907-.706.989-1.26V4.32a9 9 0 0 0 0-2.642c-.028-.194.048-.394.224-.479A2 2 0 0 1 11 3q-.002 1.22-.234 2.371a.52.52 0 0 0 .5.629H13c1.104 0 2.01.898 1.901 1.997a20 20 0 0 1-1.081 4.787c-.27.748-.998 1.216-1.793 1.216H9.324q-.324 0-.632-.103l-2.384-.794A2 2 0 0 0 5.675 13"/>
</svg>
